X: 18337
T: Humours Of Westport, The
R: reel
M: 4/4
K: Dmajor
AG|FDAD BDAD|FDAF GBAG|1 FDAD BDAF|GBEF GB:|2 FAdf ecdA|GFEF GA||
Bc|d2dc dAFA|d2 dc dfec|1 d2 dc dAFA|GFEF GA:|2 fdec dAFA|GFEF GB||

